src/assets/star-on.svg

<svg width="20" height="20" viewBox="0 0 20 20" fill="none" xmlns="http://www.w3.org/2000/svg">
<g clip-path="url(#clip0_2045_90444)">
<path d="M5.11428 19.0018L10.0003 16.4338L14.8863 19.0018C15.7533 19.4578 16.7893 18.7258 16.6213 17.7418L15.6863 12.3028L19.6373 8.45277C20.3473 7.76077 19.9553 6.55277 18.9763 6.41177L13.5143 5.61477L11.0733 0.664769C10.6363 -0.216231 9.36828 -0.228231 8.92728 0.664769L6.48628 5.61477L1.02428 6.41177C0.0442814 6.55377 -0.347719 7.76177 0.363281 8.45177L4.31428 12.3028L3.37928 17.7428C3.21128 18.7258 4.24728 19.4628 5.11428 19.0028V19.0018Z" fill="#FFB700"/>
</g>
<defs>
<clipPath id="clip0_2045_90444">
<rect width="20" height="20" fill="white"/>
</clipPath>
</defs>
</svg>

<svg xmlns="http://www.w3.org/2000/svg" width="20" height="20"><path d="M5.114 19.002L10 16.434l4.886 2.568c.867.456 1.903-.276 1.735-1.26l-.935-5.439 3.951-3.85c.71-.692.318-1.9-.661-2.041l-5.462-.797-2.441-4.95c-.437-.881-1.705-.893-2.146 0l-2.441 4.95-5.462.797c-.98.142-1.372 1.35-.661 2.04l3.951 3.851-.935 5.44c-.168.983.868 1.72 1.735 1.26z" fill="#FFB700" fill-rule="nonzero"/></svg>
